assets/svg/google.svg

<svg width="24" height="24" viewBox="0 0 24 24" fill="none" xmlns="http://www.w3.org/2000/svg">
    <path d="M6.92254 8.14978C8.08785 6.61678 9.93013 5.625 11.9999 5.625C13.7027 5.625 15.3036 6.28809 16.5078 7.49217L17.0049 7.98933L20.9824 4.01189L20.4853 3.51473C18.2188 1.24823 15.2053 0 11.9999 0C8.79463 0 5.78118 1.24823 3.51463 3.51469C3.3089 3.72047 3.11179 3.93253 2.92297 4.15017L6.92254 8.14978Z" fill="#FFFFFF"/>
    <path d="M19.8498 21.0769C20.0674 20.8881 20.2795 20.691 20.4853 20.4853C22.7518 18.2187 24 15.2053 24 11.9999C24 11.2699 23.9339 10.5384 23.8035 9.82603L23.698 9.24951H11.2969V14.8745H17.6931C17.2507 15.7545 16.6179 16.5048 15.8556 17.0827L19.8498 21.0769Z" fill="#FFFFFF"/>
    <path d="M14.6063 17.8221C13.8051 18.1795 12.9213 18.3749 11.9999 18.3749C9.93013 18.3749 8.08785 17.3831 6.92254 15.8501L2.92297 19.8497C3.11179 20.0673 3.3089 20.2794 3.51463 20.4851C5.78118 22.7516 8.79463 23.9999 11.9999 23.9999C14.4335 23.9999 16.7561 23.2797 18.7255 21.9414L14.6063 17.8221Z" fill="#FFFFFF"/>
    <path d="M6.18108 14.603C5.82394 13.8078 5.625 12.9267 5.625 12C5.625 11.0733 5.82394 10.1922 6.18108 9.39698L2.05852 5.27441C0.720141 7.24387 0 9.56643 0 12C0 14.4336 0.720141 16.7561 2.05852 18.7256L6.18108 14.603Z" fill="#FFFFFF"/>
</svg>

<svg xmlns="http://www.w3.org/2000/svg" viewBox="0 0 24 24">
    <path d="M6.9,8.1c1.2-1.5,3-2.5,5.1-2.5c1.7,0,3.3,0.7,4.5,1.9L17,8l4-4l-0.5-0.5C18.2,1.2,15.2,0,12,0C8.8,0,5.8,1.2,3.5,3.5
	C3.3,3.7,3.1,3.9,2.9,4.2L6.9,8.1z" fill="#FFFFFF" />
    <path d="M19.8,21.1c0.2-0.2,0.4-0.4,0.6-0.6c2.3-2.3,3.5-5.3,3.5-8.5c0-0.7-0.1-1.5-0.2-2.2l-0.1-0.6H11.3v5.6h6.4
	c-0.4,0.9-1.1,1.6-1.8,2.2L19.8,21.1z" fill="#FFFFFF" />
    <path d="M14.6,17.8c-0.8,0.4-1.7,0.6-2.6,0.6c-2.1,0-3.9-1-5.1-2.5l-4,4c0.2,0.2,0.4,0.4,0.6,0.6C5.8,22.8,8.8,24,12,24
	c2.4,0,4.8-0.7,6.7-2.1L14.6,17.8z" fill="#FFFFFF" />
    <path
        d="M6.2,14.6c-0.4-0.8-0.6-1.7-0.6-2.6s0.2-1.8,0.6-2.6L2.1,5.3C0.7,7.2,0,9.6,0,12c0,2.4,0.7,4.8,2.1,6.7L6.2,14.6z"
        fill="#FFFFFF" />
</svg>
